Newaita-dark/actions/24/gnumeric-format-valign-bottom.svg

<svg height="24" viewBox="0 0 24 24" width="24" xmlns="http://www.w3.org/2000/svg"><g fill="#e0e0e0"><path d="m12.898438 15.070312h-1.984376v-12.390624c0-.273438.222657-.496094.496094-.496094h.992188c.277344 0 .496094.222656.496094.496094zm0 0"/><path d="m8.433594 14.078125h6.945312l-3.472656 4.960937zm0 0"/><path d="m2.480469 20.03125h18.855469c.273437 0 .496093.222656.496093.5v.992188c0 .273437-.222656.496093-.496093.496093h-18.855469c-.273438 0-.496094-.222656-.496094-.496093v-.992188c0-.277344.222656-.5.496094-.5zm0 0"/></g></svg>

<?xml version="1.0" encoding="UTF-8"?>
<svg xmlns="http://www.w3.org/2000/svg" xmlns:xlink="http://www.w3.org/1999/xlink" width="24px" height="24px" viewBox="0 0 24 24" version="1.1">
<g id="surface1">
<path style=" stroke:none;fill-rule:nonzero;fill:rgb(87.843138%,87.843138%,87.843138%);fill-opacity:1;" d="M 12.898438 15.070312 L 10.914062 15.070312 L 10.914062 2.679688 C 10.914062 2.40625 11.136719 2.183594 11.410156 2.183594 L 12.402344 2.183594 C 12.679688 2.183594 12.898438 2.40625 12.898438 2.679688 Z M 12.898438 15.070312 "/>
<path style=" stroke:none;fill-rule:nonzero;fill:rgb(87.843138%,87.843138%,87.843138%);fill-opacity:1;" d="M 8.433594 14.078125 L 15.378906 14.078125 L 11.90625 19.039062 Z M 8.433594 14.078125 "/>
<path style=" stroke:none;fill-rule:nonzero;fill:rgb(87.843138%,87.843138%,87.843138%);fill-opacity:1;" d="M 2.480469 20.03125 L 21.335938 20.03125 C 21.609375 20.03125 21.832031 20.253906 21.832031 20.53125 L 21.832031 21.523438 C 21.832031 21.796875 21.609375 22.019531 21.335938 22.019531 L 2.480469 22.019531 C 2.207031 22.019531 1.984375 21.796875 1.984375 21.523438 L 1.984375 20.53125 C 1.984375 20.253906 2.207031 20.03125 2.480469 20.03125 Z M 2.480469 20.03125 "/>
</g>
</svg>
